X:1
T:Title
%%score ( 1 2 ) ( 3 4 )
L:1/8
Q:1/4=85
M:2/4
K:C
V:1 treble nm="Grand Piano, Soprano"
V:2 treble 
V:3 bass nm="Choir Pad, Jesus, We Are Coming"
V:4 bass 
V:1
 [CE][EG] [CE][EG] | [DF] .[B,D]3 | [B,D][CE] [DF][FA] | .[EG]4 | [EG][Ec] [GB][FA] | [FB] A2 B | %6
w: By~George~Beaverson * * *||||||
 [FA][EG] [DG][D^F] | .[DG]4 | [DG][DF] [DF][DF] | [DF] .[CE]3 | [B,D][CE] [DF][FA] | .[EG]4 | %12
w: ||||||
 [EG][Ec] [GB][FA] | [EG] .[Ec]3 | [Ec][DB] [FA][FB] | .[Ec]4 | [Ec]2 [GB]2 | [FA]2 G2 | FE DC | %19
w: |||||||
 .G4 | [EG]2 [Gc]2 | [FA]2 [Dd]2 | [Ec][DB] [FA][FB] | [Ec]4- | [Ec]4 |] %25
w: ||||||
V:2
 x4 | x4 | x4 | x4 | x4 | z F3 | x4 | x4 | x4 | x4 | x4 | x4 | x4 | x4 | x4 | x4 | x4 | x4 | x4 | %19
 x4 | x4 | x4 | x4 | x4 | x4 |] %25
V:3
 [C,G,][C,G,] [C,G,][C,G,] | [G,,G,] .[G,,G,]3 | [G,,G,][G,,G,] [G,,G,][G,,G,] | .[C,G,]4 | %4
 [C,C][C,C] [C,C][C,C] | z .C3 | [C,C][C,C] [D,B,][D,A,] | .[G,B,]4 | [G,B,][G,B,] G,G, | %9
 [C,G,] .[C,G,]3 | [G,,G,][G,,G,] [G,,G,][G,,G,] | .[C,G,]4 | [C,C][C,G,] [E,C][F,C] | %13
 [G,C] .[G,C]3 | G,G, [G,,G,][G,,G,] | .[C,G,]4 | [C,C]2 [E,C]2 | [F,C]2 [E,C]2 | F,E, D,C, | %19
 .G,4 | [C,C]2 [E,C]2 | [F,C]2 [F,C]2 | [G,C]G, G,G, | [C,G,]4- | [C,G,]4 |] %25
V:4
 x4 | x4 | x4 | x4 | x4 | [C,C] F,2- [F,D] | x4 | x4 | x4 | x4 | x4 | x4 | x4 | x4 | x4 | x4 | x4 | %17
 x4 | x4 | x4 | x4 | x4 | x4 | x4 | x4 |] %25

